picto/maximum-load.svg

<svg class="color-immutable" width="24" height="24" viewBox="0 0 24 24" fill="none" xmlns="http://www.w3.org/2000/svg"><path d="M0 22.5V1.5C0 0.675 0.675 0 1.5 0H22.5C23.325 0 24 0.675 24 1.5V22.5C24 23.325 23.325 24 22.5 24H1.5C0.675 24 0 23.325 0 22.5Z" fill="#2D327D"/><path d="M11.285 14.856L8.28302 11.854V13.73L12.036 17.484L15.79 13.73V11.854L12.787 14.856V7.724H11.285V14.856Z" fill="white"/><path d="M21 21H3V19.5H21V21Z" fill="white"/><path d="M5.717 3V5.249H5.251L5.268 3.54L4.701 5.249H4.315L3.738 3.588L3.755 5.249H3.289V3H3.987L4.516 4.617L5.025 3H5.717Z" fill="white"/><path d="M7.62501 5.249H7.16901C7.15001 5.183 7.14001 5.12699 7.14001 5.08099C7.00101 5.22399 6.82101 5.295 6.60001 5.295C6.42801 5.295 6.29301 5.255 6.19701 5.175C6.08701 5.083 6.03101 4.95399 6.03101 4.789C6.03101 4.57899 6.12601 4.433 6.31601 4.352C6.39301 4.319 6.53401 4.289 6.74001 4.261C6.91701 4.237 7.02801 4.21499 7.07101 4.19299C7.11501 4.17099 7.13701 4.12599 7.13701 4.05999C7.13701 3.91299 7.04001 3.83999 6.84501 3.83999C6.74101 3.83999 6.66601 3.85799 6.61801 3.89499C6.57001 3.93199 6.53901 3.99599 6.52301 4.08699H6.10201C6.11501 3.90099 6.18601 3.75999 6.31301 3.66499C6.44001 3.56999 6.62101 3.52299 6.85601 3.52299C7.11501 3.52299 7.30701 3.57599 7.43101 3.68099C7.48801 3.73099 7.52601 3.78299 7.54501 3.83999C7.56401 3.89599 7.57301 3.98599 7.57301 4.10799C7.57301 4.13399 7.57101 4.246 7.56801 4.446C7.56701 4.648 7.56601 4.764 7.56601 4.793C7.56601 4.915 7.57001 5.00399 7.57701 5.06099C7.58401 5.11899 7.60001 5.181 7.62501 5.249ZM7.13401 4.438C7.07701 4.474 6.97201 4.50199 6.82001 4.52299C6.71401 4.53899 6.63701 4.55999 6.59001 4.58599C6.52301 4.62199 6.49001 4.683 6.49001 4.769C6.49001 4.839 6.51201 4.893 6.55601 4.932C6.60001 4.971 6.66101 4.98999 6.74001 4.98999C6.87101 4.98999 6.97701 4.944 7.05801 4.852C7.08701 4.82 7.10701 4.78699 7.11801 4.75299C7.12901 4.71899 7.13401 4.673 7.13401 4.617V4.438Z" fill="white"/><path d="M9.42702 3.569L8.88902 4.349L9.49502 5.249H8.98002L8.63402 4.704L8.29502 5.249H7.78802L8.38002 4.36L7.84002 3.569H8.35203L8.64402 4.02L8.92902 3.569H9.42702Z" fill="white"/><path d="M10.204 4.74899V5.24899H9.69299V4.74899H10.204Z" fill="white"/><path d="M12.948 4.861V5.249H11.328C11.328 5.13 11.347 5.017 11.386 4.911C11.425 4.804 11.481 4.712 11.554 4.634C11.609 4.575 11.674 4.517 11.748 4.461C11.822 4.405 11.97 4.301 12.193 4.15C12.301 4.076 12.376 4.008 12.419 3.946C12.462 3.884 12.484 3.812 12.484 3.73C12.484 3.635 12.455 3.557 12.397 3.499C12.339 3.44 12.263 3.411 12.169 3.411C11.937 3.411 11.818 3.572 11.811 3.894H11.379C11.379 3.873 11.379 3.858 11.379 3.846C11.379 3.582 11.455 3.378 11.608 3.234C11.757 3.092 11.949 3.022 12.186 3.022C12.393 3.022 12.567 3.079 12.709 3.194C12.862 3.319 12.938 3.487 12.938 3.698C12.938 3.883 12.877 4.042 12.755 4.175C12.715 4.218 12.678 4.253 12.643 4.28C12.609 4.307 12.517 4.37 12.367 4.469C12.223 4.566 12.122 4.64 12.062 4.689C12.002 4.738 11.946 4.796 11.894 4.863H12.948V4.861Z" fill="white"/><path d="M13.9 3.02C14.071 3.02 14.222 3.07 14.352 3.171C14.482 3.271 14.576 3.426 14.633 3.634C14.677 3.794 14.699 3.967 14.699 4.154C14.699 4.472 14.642 4.727 14.527 4.92C14.456 5.038 14.367 5.128 14.259 5.19C14.151 5.252 14.03 5.283 13.896 5.283C13.712 5.283 13.556 5.23 13.425 5.123C13.193 4.934 13.077 4.612 13.077 4.156C13.077 3.828 13.137 3.567 13.258 3.373C13.329 3.259 13.419 3.172 13.53 3.112C13.641 3.052 13.765 3.02 13.9 3.02ZM13.883 3.385C13.736 3.385 13.636 3.467 13.582 3.631C13.54 3.758 13.519 3.94 13.519 4.177C13.519 4.385 13.541 4.551 13.584 4.674C13.639 4.837 13.742 4.919 13.892 4.919C14.016 4.919 14.108 4.856 14.169 4.731C14.23 4.606 14.26 4.413 14.26 4.153C14.26 3.934 14.238 3.759 14.195 3.63C14.138 3.466 14.035 3.385 13.883 3.385Z" fill="white"/><path d="M17.851 3L16.97 3.889L17.934 5.249H17.314L16.632 4.24L16.349 4.523V5.249H15.858V3H16.349V3.931L17.23 3H17.851Z" fill="white"/><path d="M19.656 3.569V5.049C19.656 5.18 19.648 5.285 19.631 5.364C19.615 5.442 19.586 5.514 19.546 5.579C19.417 5.784 19.185 5.887 18.851 5.887C18.385 5.887 18.131 5.711 18.087 5.359H18.536C18.567 5.499 18.675 5.57 18.861 5.57C19.003 5.57 19.101 5.53 19.158 5.45C19.202 5.386 19.224 5.284 19.224 5.142L19.226 4.934C19.111 5.11 18.945 5.199 18.728 5.199C18.518 5.199 18.35 5.125 18.225 4.978C18.098 4.828 18.034 4.626 18.034 4.372C18.034 4.118 18.098 3.914 18.225 3.76C18.357 3.601 18.531 3.522 18.746 3.522C18.858 3.522 18.951 3.543 19.026 3.585C19.101 3.627 19.17 3.697 19.232 3.796V3.569H19.656ZM18.845 3.886C18.72 3.886 18.625 3.938 18.56 4.043C18.508 4.127 18.482 4.234 18.482 4.363C18.482 4.527 18.52 4.652 18.596 4.737C18.662 4.813 18.747 4.851 18.853 4.851C18.986 4.851 19.086 4.795 19.153 4.683C19.204 4.597 19.23 4.488 19.23 4.357C19.23 4.199 19.191 4.077 19.112 3.991C19.046 3.921 18.958 3.886 18.845 3.886Z" fill="white"/></svg>

<svg class="color-immutable" width="24" height="24" viewBox="0 0 24 24" fill="none" xmlns="http://www.w3.org/2000/svg"><g clip-path="url(#a)"><path d="M0 22.5v-21C0 .675.675 0 1.5 0h21c.825 0 1.5.675 1.5 1.5v21c0 .825-.675 1.5-1.5 1.5h-21C.675 24 0 23.325 0 22.5Z" fill="#2D327D"/><path d="m11.285 14.856-3.002-3.002v1.876l3.753 3.754 3.754-3.754v-1.876l-3.003 3.002V7.724h-1.502v7.132ZM21 21H3v-1.5h18V21ZM5.717 3v2.249h-.466l.017-1.709-.567 1.709h-.386l-.577-1.661.017 1.661h-.466V3h.698l.529 1.617L5.025 3h.692ZM7.625 5.249h-.456a.629.629 0 0 1-.029-.168.72.72 0 0 1-.54.214c-.172 0-.307-.04-.403-.12a.477.477 0 0 1-.166-.386c0-.21.095-.356.285-.437.077-.033.218-.063.424-.091.177-.024.288-.046.331-.068.044-.022.066-.067.066-.133 0-.147-.097-.22-.292-.22-.104 0-.179.018-.227.055-.048.037-.079.101-.095.192h-.421a.546.546 0 0 1 .211-.422c.127-.095.308-.142.543-.142.259 0 .451.053.575.158a.37.37 0 0 1 .114.159.915.915 0 0 1 .028.268l-.005.338-.002.347c0 .122.004.211.011.268.007.058.023.12.048.188Zm-.491-.811c-.057.036-.162.064-.314.085a.734.734 0 0 0-.23.063c-.067.036-.1.097-.1.183 0 .07.022.124.066.163a.267.267 0 0 0 .184.058.403.403 0 0 0 .318-.138.274.274 0 0 0 .06-.099.46.46 0 0 0 .016-.136v-.179ZM9.427 3.569l-.538.78.606.9H8.98l-.346-.545-.339.545h-.507l.592-.889-.54-.791h.512l.292.451.285-.451h.498ZM10.204 4.749v.5h-.511v-.5h.511ZM12.948 4.861v.388h-1.62c0-.119.019-.232.058-.338a.801.801 0 0 1 .168-.277c.055-.059.12-.117.194-.173.074-.056.222-.16.445-.311a.881.881 0 0 0 .226-.204.37.37 0 0 0 .065-.216.314.314 0 0 0-.087-.231.305.305 0 0 0-.228-.088c-.232 0-.351.161-.358.483h-.432v-.048c0-.264.076-.468.229-.612a.802.802 0 0 1 .578-.212c.207 0 .381.057.523.172a.617.617 0 0 1 .229.504.681.681 0 0 1-.183.477.949.949 0 0 1-.112.105c-.034.027-.126.09-.276.189a4.449 4.449 0 0 0-.305.22 1.07 1.07 0 0 0-.168.174h1.054v-.002ZM13.9 3.02c.171 0 .322.05.452.151.13.1.224.255.281.463.044.16.066.333.066.52 0 .318-.057.573-.172.766a.746.746 0 0 1-.268.27.716.716 0 0 1-.363.093.719.719 0 0 1-.471-.16c-.232-.189-.348-.511-.348-.967 0-.328.06-.589.181-.783a.723.723 0 0 1 .272-.261.769.769 0 0 1 .37-.092Zm-.017.365c-.147 0-.247.082-.301.246a1.826 1.826 0 0 0-.063.546c0 .208.022.374.065.497.055.163.158.245.308.245.124 0 .216-.063.277-.188.061-.125.091-.318.091-.578 0-.219-.022-.394-.065-.523-.057-.164-.16-.245-.312-.245ZM17.851 3l-.881.889.964 1.36h-.62l-.682-1.009-.283.283v.726h-.491V3h.491v.931L17.23 3h.621ZM19.656 3.569v1.48c0 .131-.008.236-.025.315a.662.662 0 0 1-.085.215c-.129.205-.361.308-.695.308-.466 0-.72-.176-.764-.528h.449c.031.14.139.211.325.211.142 0 .24-.04.297-.12.044-.064.066-.166.066-.308l.002-.208a.56.56 0 0 1-.498.265.627.627 0 0 1-.503-.221c-.127-.15-.191-.352-.191-.606s.064-.458.191-.612a.644.644 0 0 1 .521-.238c.112 0 .205.021.28.063a.596.596 0 0 1 .206.211v-.227h.424Zm-.811.317a.315.315 0 0 0-.285.157.6.6 0 0 0-.078.32c0 .164.038.289.114.374a.323.323 0 0 0 .257.114.328.328 0 0 0 .3-.168.632.632 0 0 0 .077-.326c0-.158-.039-.28-.118-.366a.348.348 0 0 0-.267-.105Z" fill="#fff"/></g><defs><clipPath id="a"><path fill="#fff" d="M0 0h24v24H0z"/></clipPath></defs></svg>
